svgs/thin/vector-square.svg

<svg xmlns="http://www.w3.org/2000/svg" viewBox="0 0 448 512"><!--! Font Awesome Pro 6.0.0-alpha3 by @fontawesome - https://fontawesome.com License - https://fontawesome.com/license (Commercial License) --><path d="M416 128c17.67 0 32-14.33 32-32V64c0-17.67-14.33-32-32-32h-32c-17.67 0-32 14.33-32 32v8H96V64c0-17.67-14.33-32-32-32H32C14.33 32 0 46.33 0 64v32c0 17.67 14.33 32 32 32h8v256H32c-17.67 0-32 14.33-32 32v32c0 17.67 14.33 32 32 32h32c17.67 0 32-14.33 32-32v-8h256V448c0 17.67 14.33 32 32 32h32c17.67 0 32-14.33 32-32v-32c0-17.67-14.33-32-32-32h-8V128H416zM368 64c0-8.822 7.178-16 16-16h32c8.822 0 16 7.178 16 16v32c0 8.822-7.178 16-16 16h-32c-8.822 0-16-7.178-16-16V64zM32 112C23.18 112 16 104.8 16 96V64c0-8.822 7.178-16 16-16h32c8.822 0 16 7.178 16 16v32c0 8.822-7.178 16-16 16H32zM80 448c0 8.822-7.178 16-16 16H32c-8.822 0-16-7.178-16-16v-32c0-8.822 7.178-16 16-16h32c8.822 0 16 7.178 16 16V448zM416 400c8.822 0 16 7.178 16 16v32c0 8.822-7.178 16-16 16h-32c-8.822 0-16-7.178-16-16v-32c0-8.822 7.178-16 16-16H416zM392 384H384c-17.67 0-32 14.33-32 32v8H96V416c0-17.67-14.33-32-32-32H56V128H64c17.67 0 32-14.33 32-32V88h256V96c0 17.67 14.33 32 32 32h8V384z"/></svg>

<svg xmlns="http://www.w3.org/2000/svg" viewBox="0 0 448 512"><!--! Font Awesome Pro 6.4.2 by @fontawesome - https://fontawesome.com License - https://fontawesome.com/license (Commercial License) Copyright 2023 Fonticons, Inc. --><path d="M416 48c8.8 0 16 7.2 16 16V96c0 8.8-7.2 16-16 16H384c-8.8 0-16-7.2-16-16V64c0-8.8 7.2-16 16-16h32zM384 32c-17.7 0-32 14.3-32 32v8H96V64c0-17.7-14.3-32-32-32H32C14.3 32 0 46.3 0 64V96c0 17.7 14.3 32 32 32h8l0 256H32c-17.7 0-32 14.3-32 32v32c0 17.7 14.3 32 32 32H64c17.7 0 32-14.3 32-32v-8H352v8c0 17.7 14.3 32 32 32h32c17.7 0 32-14.3 32-32V416c0-17.7-14.3-32-32-32h-8V128h8c17.7 0 32-14.3 32-32V64c0-17.7-14.3-32-32-32H384zM56 384l0-256h8c17.7 0 32-14.3 32-32V88H352v8c0 17.7 14.3 32 32 32h8V384h-8c-17.7 0-32 14.3-32 32v8H96v-8c0-17.7-14.3-32-32-32H56zM32 400H64c8.8 0 16 7.2 16 16v32c0 8.8-7.2 16-16 16H32c-8.8 0-16-7.2-16-16V416c0-8.8 7.2-16 16-16zm352 0h32c8.8 0 16 7.2 16 16v32c0 8.8-7.2 16-16 16H384c-8.8 0-16-7.2-16-16V416c0-8.8 7.2-16 16-16zM32 48H64c8.8 0 16 7.2 16 16V96c0 8.8-7.2 16-16 16H32c-8.8 0-16-7.2-16-16V64c0-8.8 7.2-16 16-16z"/></svg>
